icons/mouse-fill.svg

<svg viewBox="0 0 24 24" fill="currentColor" xmlns="http://www.w3.org/2000/svg"><path d="M11.1411 2H12.8589C14.8728 2 15.9528 2.27848 16.9305 2.8014C17.9083 3.32432 18.6757 4.09169 19.1986 5.06946C19.7215 6.04724 20 7.12721 20 9.14111V14.8589C20 16.8728 19.7215 17.9528 19.1986 18.9305C18.6757 19.9083 17.9083 20.6757 16.9305 21.1986C15.9528 21.7215 14.8728 22 12.8589 22H11.1411C9.12721 22 8.04724 21.7215 7.06946 21.1986C6.09169 20.6757 5.32432 19.9083 4.8014 18.9305C4.27848 17.9528 4 16.8728 4 14.8589V9.14111C4 7.12721 4.27848 6.04724 4.8014 5.06946C5.32432 4.09169 6.09169 3.32432 7.06946 2.8014C8.04724 2.27848 9.12721 2 11.1411 2ZM11 6V11H13V6H11Z"/></svg>

<svg xmlns="http://www.w3.org/2000/svg" viewBox="0 0 24 24">
    <g>
        <path fill="none" d="M0 0h24v24H0z"/>
        <path d="M11.141 2h1.718c2.014 0 3.094.278 4.072.801a5.452 5.452 0 0 1 2.268 2.268c.523.978.801 2.058.801 4.072v5.718c0 2.014-.278 3.094-.801 4.072a5.452 5.452 0 0 1-2.268 2.268c-.978.523-2.058.801-4.072.801H11.14c-2.014 0-3.094-.278-4.072-.801a5.452 5.452 0 0 1-2.268-2.268C4.278 17.953 4 16.873 4 14.859V9.14c0-2.014.278-3.094.801-4.072A5.452 5.452 0 0 1 7.07 2.801C8.047 2.278 9.127 2 11.141 2zM11 6v5h2V6h-2z"/>
    </g>
</svg>
